assets/Monorail/Flat/monorail_flat.svg

<svg width="32" height="32" viewBox="0 0 32 32" fill="none" xmlns="http://www.w3.org/2000/svg">
<path d="M30 27H3C2.44772 27 2 27.4477 2 28V30H30V27Z" fill="#D3D3D3"/>
<path d="M30 7C28.1802 7.28605 26.3859 7.6963 24.6287 8.2263C20.5 11 20.4855 11.011 16 15L7.37991 18.528L2.85845 22.551C1.12835 24.0887 2.18841 27 4.47854 27H13L28 25.5L30 21V7Z" fill="#0074BA"/>
<path d="M9 25H7C6.45 25 6 24.55 6 24C6 23.45 6.45 23 7 23H9C9.55 23 10 23.45 10 24C10 24.56 9.55 25 9 25Z" fill="#F8312F"/>
<path d="M15.1584 24.6L13 27H30V21H23.8023C20.4002 20.9915 17.2037 22.3286 15.1584 24.6Z" fill="#E6E6E6"/>
<path fill-rule="evenodd" clip-rule="evenodd" d="M24.6263 8.22705C23.1691 14.4034 17.6214 19 11 19C9.74831 19 8.53496 18.8358 7.38037 18.5276L9.29883 16.8206C13.7837 12.8322 19.0164 9.9194 24.6263 8.22705Z" fill="#26C9FC"/>
</svg>

<svg xmlns="http://www.w3.org/2000/svg" width="32" height="32" fill="none"><path fill="#D3D3D3" d="M30 27H3a1 1 0 0 0-1 1v2h28v-3Z"/><path fill="#0074BA" d="M30 7c-1.82.286-3.614.696-5.371 1.226C20.5 11 20.485 11.011 16 15l-8.62 3.528-4.522 4.023C1.128 24.089 2.188 27 4.478 27H13l15-1.5 2-4.5V7Z"/><path fill="#F8312F" d="M9 25H7c-.55 0-1-.45-1-1s.45-1 1-1h2c.55 0 1 .45 1 1 0 .56-.45 1-1 1Z"/><path fill="#E6E6E6" d="M15.158 24.6 13 27h17v-6h-6.198c-3.402-.009-6.598 1.329-8.644 3.6Z"/><path fill="#26C9FC" fill-rule="evenodd" d="M24.626 8.227C23.17 14.403 17.621 19 11 19c-1.252 0-2.465-.164-3.62-.472L9.3 16.82a40.794 40.794 0 0 1 15.327-8.594Z" clip-rule="evenodd"/></svg>
